Yaru++/devices/32/phone.svg

<svg height="32" width="32" xmlns="http://www.w3.org/2000/svg" xmlns:xlink="http://www.w3.org/1999/xlink"><linearGradient id="a" gradientUnits="userSpaceOnUse" x1="9.5" x2="23.5" y1="5" y2="26"><stop offset="0" stop-color="#9a9a9a"/><stop offset="1" stop-color="#c5c5c5"/></linearGradient><linearGradient id="b" gradientUnits="userSpaceOnUse" x1="350.98334" x2="321.01666" y1="148.02487" y2="148.02487"><stop offset="0" stop-color="#fff"/><stop offset=".125" stop-color="#fff" stop-opacity=".098039"/><stop offset=".92500001" stop-color="#fff" stop-opacity=".098039"/><stop offset="1" stop-color="#fff" stop-opacity=".498039"/></linearGradient><clipPath id="c"><path d="m350.9998 152.99999c0 5.00001-1.95653 4.9417-7 5.00001h-15.9998c-5.04347-.0583-7 0-7-5.00001v-11.0002c0-5.00001 1.95653-4.9417 7-5.00001h15.9998c5.04347.0583 7 0 7 5.00001z"/></clipPath><path d="m21.73814 1.0001995c4.76186 0 4.70633 1.95653 4.76186 7v15.9998005c-.0555 5.04347 0 7-4.76186 7h-10.47627c-4.76187 0-4.70634-1.95653-4.76187-7v-15.9998005c.0555-5.04347 0-7 4.76187-7z" fill="none" opacity=".2" stroke="#000" stroke-width="2"/><path d="m6 23.24761c.0278 2.4378-.0145 4.17524.67675 5.44543.34563.6351.90155 1.11812 1.65369 1.40436.75213.28624 1.69525.4026 2.91956.4026h10.5c1.22431 0 2.16743-.11636 2.91956-.4026.75214-.28624 1.30805-.76926 1.65369-1.40436.69126-1.27019.64895-3.00763.67675-5.44543v-.004-15.4876505-.004c-.0278-2.4378.0145-4.1752501-.67675-5.44544-.34564-.6351-.90155-1.11811-1.65369-1.40435004-.75213-.28563-1.69525-.40217-2.91956-.40217h-10.5c-1.22431 0-2.16743.11636-2.91956.4026-.75214.28624004-1.30806.76926004-1.65369 1.40436004-.69126 1.2701899-.64895 3.00763-.67675 5.44543v.004 15.4876405z" fill="#4d4d4d"/><path d="m6 23.24761c.0278 2.4378-.0145 4.17524.67675 5.44543.34563.6351.90155 1.11812 1.65369 1.40436.75213.28624 1.69525.4026 2.91956.4026h10.5c1.22431 0 2.16743-.11636 2.91956-.4026.75214-.28624 1.30805-.76926 1.65369-1.40436.69126-1.27019.64895-3.00763.67675-5.44543v-.004-15.4876505-.004c-.0278-2.4378.0145-4.1752501-.67675-5.44544-.34564-.6351-.90155-1.11811-1.65369-1.40435004-.75213-.28563-1.69525-.40217-2.91956-.40217h-10.5c-1.22431 0-2.16743.11636-2.91956.4026-.75214.28624004-1.30806.76926004-1.65369 1.40436004-.69126 1.2701899-.64895 3.00763-.67675 5.44543v.004 15.4876405z" fill="none" opacity=".3" stroke="#000"/><path d="m11.25.49999946c-1.22431 0-2.16779.1161-2.91992.40234-.75214.28624004-1.30867.76920004-1.6543 1.40430004-.69126 1.2701899-.64798 3.00751-.67578 5.44531v.004 15.4882805.004c.0278 2.4378-.0155 4.17512.67578 5.44531.34563.6351.90216 1.11806 1.6543 1.4043.75213.28624 1.69561.40234 2.91992.40234h5.25v-30.00000054z" opacity=".03"/><path clip-path="url(#c)" d="m350.9998 152.99999c0 5.00001-1.95653 4.9417-7 5.00001h-15.9998c-5.04347-.0583-7 0-7-5.00001v-11.0002c0-5.00001 1.95653-4.9417 7-5.00001h15.9998c5.04347.0583 7 0 7 5.00001z" fill="none" opacity=".3" stroke="url(#b)" stroke-width="2.084429" transform="matrix(0 -.96667311 .95237098 0 -123.97461 340.30207)"/><path d="m15.13636 4.9999994-7.63636 15.2727306v4.77273c0 .52881.42573.95454.95455.95454h3.54545l10.5-21.0000006z" fill="#fff" opacity=".15"/><rect fill="url(#a)" height="21" rx="1" width="18" x="7.5" y="4.999999"/><rect height="1" opacity=".3" rx=".5" width="4" x="14.5" y="1.999999"/><path d="m15.13636 4.9999994-7.63636 15.2727306v4.77273c0 .52881.42573.95454.95455.95454h3.54545l10.5-21.0000006z" fill="#fff" opacity=".2"/><path d="m8.5 4.9999994c-.554 0-1 .4460001-1 1.0000001v14.2734405l7.63672-15.2734406z" fill="#f9f9f9" opacity=".4"/></svg>

<?xml version="1.0" encoding="UTF-8" standalone="no"?>
<svg
   xmlns:dc="http://purl.org/dc/elements/1.1/"
   xmlns:cc="http://creativecommons.org/ns#"
   xmlns:rdf="http://www.w3.org/1999/02/22-rdf-syntax-ns#"
   xmlns:svg="http://www.w3.org/2000/svg"
   xmlns="http://www.w3.org/2000/svg"
   xmlns:xlink="http://www.w3.org/1999/xlink"
   xmlns:sodipodi="http://sodipodi.sourceforge.net/DTD/sodipodi-0.dtd"
   xmlns:inkscape="http://www.inkscape.org/namespaces/inkscape"
   width="32"
   height="32"
   version="1.1"
   id="svg8"
   sodipodi:docname="phone.svg"
   inkscape:version="0.92.4 (5da689c313, 2019-01-14)">
  <metadata
     id="metadata14">
    <rdf:RDF>
      <cc:Work
         rdf:about="">
        <dc:format>image/svg+xml</dc:format>
        <dc:type
           rdf:resource="http://purl.org/dc/dcmitype/StillImage" />
        <dc:title />
      </cc:Work>
    </rdf:RDF>
  </metadata>
  <defs
     id="defs12">
    <clipPath
       clipPathUnits="userSpaceOnUse"
       id="clipPath959">
      <path
         style="color:#000000;display:inline;overflow:visible;visibility:visible;opacity:1;fill:#46a926;fill-opacity:1;fill-rule:nonzero;stroke:none;stroke-width:2;stroke-miterlimit:4;stroke-dasharray:none;stroke-opacity:1;marker:none;enable-background:accumulate"
         d="m 330.1929,133.99999 c -5.61538,0 -6.21958,0.57678 -6.19206,6.20352 v 7.79648 7.79648 c -0.0276,5.62673 0.57668,6.20351 6.19206,6.20351 h 11.615 c 5.6154,0 6.19208,-0.5767 6.19208,-6.20351 v -7.79648 -7.79648 c 0,-5.6268 -0.5767,-6.20352 -6.19208,-6.20352 z"
         id="path961"
         inkscape:connector-curvature="0"
         sodipodi:nodetypes="scccssscsss" />
    </clipPath>
    <linearGradient
       gradientTransform="translate(-319.5,-132)"
       inkscape:collect="always"
       xlink:href="#linearGradient2277"
       id="linearGradient13869"
       x1="329"
       y1="137"
       x2="343"
       y2="158"
       gradientUnits="userSpaceOnUse" />
    <linearGradient
       inkscape:collect="always"
       id="linearGradient2277">
      <stop
         style="stop-color:#9a9a9a;stop-opacity:1"
         offset="0"
         id="stop2273" />
      <stop
         style="stop-color:#c5c5c5;stop-opacity:1"
         offset="1"
         id="stop2275" />
    </linearGradient>
    <linearGradient
       inkscape:collect="always"
       xlink:href="#linearGradient927"
       id="linearGradient1080"
       x1="350.98334"
       y1="148.02487"
       x2="321.01666"
       y2="148.02487"
       gradientUnits="userSpaceOnUse" />
    <linearGradient
       inkscape:collect="always"
       id="linearGradient927">
      <stop
         style="stop-color:#ffffff;stop-opacity:1;"
         offset="0"
         id="stop923" />
      <stop
         id="stop933"
         offset="0.125"
         style="stop-color:#ffffff;stop-opacity:0.09803922" />
      <stop
         id="stop931"
         offset="0.92500001"
         style="stop-color:#ffffff;stop-opacity:0.09803922" />
      <stop
         style="stop-color:#ffffff;stop-opacity:0.49803922"
         offset="1"
         id="stop925" />
    </linearGradient>
    <clipPath
       clipPathUnits="userSpaceOnUse"
       id="clipPath1070">
      <path
         sodipodi:nodetypes="ccccccccc"
         inkscape:connector-curvature="0"
         id="path1072"
         d="m 350.9998,152.99999 c 0,5.00001 -1.95653,4.9417 -7,5.00001 H 328 c -5.04347,-0.0583 -7,0 -7,-5.00001 v -11.0002 c 0,-5.00001 1.95653,-4.9417 7,-5.00001 h 15.9998 c 5.04347,0.0583 7,0 7,5.00001 z"
         style="color:#000000;display:inline;overflow:visible;visibility:visible;opacity:0.2;fill:#cdcdcd;fill-opacity:1;fill-rule:nonzero;stroke:none;stroke-width:2;stroke-linecap:butt;stroke-linejoin:miter;stroke-miterlimit:4;stroke-dasharray:none;stroke-dashoffset:0;stroke-opacity:1;marker:none;enable-background:accumulate" />
    </clipPath>
  </defs>
  <sodipodi:namedview
     pagecolor="#ffffff"
     bordercolor="#666666"
     borderopacity="1"
     objecttolerance="10"
     gridtolerance="10"
     guidetolerance="10"
     inkscape:pageopacity="0"
     inkscape:pageshadow="2"
     inkscape:window-width="1920"
     inkscape:window-height="1016"
     id="namedview10"
     showgrid="false"
     inkscape:zoom="26.21875"
     inkscape:cx="7.5899881"
     inkscape:cy="16"
     inkscape:window-x="0"
     inkscape:window-y="27"
     inkscape:window-maximized="1"
     inkscape:current-layer="svg8" />
  <path
     style="color:#000000;display:inline;overflow:visible;visibility:visible;opacity:0.2;fill:none;fill-opacity:1;fill-rule:nonzero;stroke:#000000;stroke-width:1.99999988;stroke-linecap:butt;stroke-linejoin:miter;stroke-miterlimit:4;stroke-dasharray:none;stroke-dashoffset:0;stroke-opacity:1;marker:none;enable-background:accumulate"
     d="m 21.73814,1.0001995 c 4.76186,0 4.70633,1.95653 4.76186,7 V 24 c -0.0555,5.04347 0,7 -4.76186,7 H 11.26187 C 6.5,31 6.55553,29.04347 6.5,24 V 8.0001995 c 0.0555,-5.04347 0,-7 4.76187,-7 z"
     id="path4297-3"
     inkscape:connector-curvature="0"
     sodipodi:nodetypes="ccccccccc" />
  <path
     style="color:#000000;display:inline;overflow:visible;visibility:visible;opacity:1;fill:#4d4d4d;fill-opacity:1;fill-rule:nonzero;stroke:none;stroke-width:2;stroke-linecap:butt;stroke-linejoin:miter;stroke-miterlimit:4;stroke-dasharray:none;stroke-dashoffset:0;stroke-opacity:1;marker:none;enable-background:accumulate"
     d="m 6,23.24761 c 0.0278,2.4378 -0.0145,4.17524 0.67675,5.44543 0.34563,0.6351 0.90155,1.11812 1.65369,1.40436 C 9.08257,30.38364 10.02569,30.5 11.25,30.5 h 10.5 c 1.22431,0 2.16743,-0.11636 2.91956,-0.4026 0.75214,-0.28624 1.30805,-0.76926 1.65369,-1.40436 C 27.01451,27.42285 26.9722,25.68541 27,23.24761 v -0.004 -15.4876505 -0.004 c -0.0278,-2.4378 0.0145,-4.1752501 -0.67675,-5.44544 -0.34564,-0.6351 -0.90155,-1.11811 -1.65369,-1.40435004 -0.75213,-0.28563 -1.69525,-0.40217 -2.91956,-0.40217 h -10.5 c -1.22431,0 -2.16743,0.11636 -2.91956,0.4026 C 7.5783,1.1888395 7.02238,1.6718595 6.67675,2.3069595 5.98549,3.5771494 6.0278,5.3145895 6,7.7523895 v 0.004 15.4876405 z"
     id="path882"
     inkscape:connector-curvature="0"
     sodipodi:nodetypes="ccsssscccccccsssccccc" />
  <path
     id="path1064"
     d="m 6,23.24761 c 0.0278,2.4378 -0.0145,4.17524 0.67675,5.44543 0.34563,0.6351 0.90155,1.11812 1.65369,1.40436 C 9.08257,30.38364 10.02569,30.5 11.25,30.5 h 10.5 c 1.22431,0 2.16743,-0.11636 2.91956,-0.4026 0.75214,-0.28624 1.30805,-0.76926 1.65369,-1.40436 C 27.01451,27.42285 26.9722,25.68541 27,23.24761 v -0.004 -15.4876505 -0.004 c -0.0278,-2.4378 0.0145,-4.1752501 -0.67675,-5.44544 -0.34564,-0.6351 -0.90155,-1.11811 -1.65369,-1.40435004 -0.75213,-0.28563 -1.69525,-0.40217 -2.91956,-0.40217 h -10.5 c -1.22431,0 -2.16743,0.11636 -2.91956,0.4026 C 7.5783,1.1888395 7.02238,1.6718595 6.67675,2.3069595 5.98549,3.5771494 6.0278,5.3145895 6,7.7523895 v 0.004 15.4876405 z"
     style="color:#000000;display:inline;overflow:visible;visibility:visible;opacity:0.3;fill:none;fill-opacity:1;fill-rule:nonzero;stroke:#000000;stroke-width:1;stroke-linecap:butt;stroke-linejoin:miter;stroke-miterlimit:4;stroke-dasharray:none;stroke-dashoffset:0;stroke-opacity:1;marker:none;enable-background:accumulate"
     inkscape:connector-curvature="0"
     sodipodi:nodetypes="ccsssscccccccsssccccc" />
  <path
     inkscape:connector-curvature="0"
     style="color:#000000;display:inline;overflow:visible;visibility:visible;opacity:0.02999998;fill:#000000;fill-opacity:1;fill-rule:nonzero;stroke:none;stroke-width:2;stroke-linecap:butt;stroke-linejoin:miter;stroke-miterlimit:4;stroke-dasharray:none;stroke-dashoffset:0;stroke-opacity:1;marker:none;enable-background:accumulate"
     d="m 11.25,0.49999946 c -1.22431,0 -2.16779,0.1161 -2.91992,0.40234 C 7.57794,1.1885795 7.02141,1.6715395 6.67578,2.3066395 5.98452,3.5768294 6.0278,5.3141495 6,7.7519495 v 0.004 15.4882805 0.004 c 0.0278,2.4378 -0.0155,4.17512 0.67578,5.44531 0.34563,0.6351 0.90216,1.11806 1.6543,1.4043 0.75213,0.28624 1.69561,0.40234 2.91992,0.40234 H 16.5 V 0.50017946 Z"
     id="path882-7" />
  <path
     style="color:#000000;display:inline;overflow:visible;visibility:visible;opacity:0.3;fill:none;fill-opacity:1;fill-rule:nonzero;stroke:url(#linearGradient1080);stroke-width:2.08442879;stroke-linecap:butt;stroke-linejoin:miter;stroke-miterlimit:4;stroke-dasharray:none;stroke-dashoffset:0;stroke-opacity:1;marker:none;enable-background:accumulate"
     d="m 350.9998,152.99999 c 0,5.00001 -1.95653,4.9417 -7,5.00001 H 328 c -5.04347,-0.0583 -7,0 -7,-5.00001 v -11.0002 c 0,-5.00001 1.95653,-4.9417 7,-5.00001 h 15.9998 c 5.04347,0.0583 7,0 7,5.00001 z"
     id="path1068"
     inkscape:connector-curvature="0"
     sodipodi:nodetypes="ccccccccc"
     clip-path="url(#clipPath1070)"
     transform="matrix(0,-0.96667311,0.95237098,0,-123.97461,340.30207)" />
  <path
     inkscape:connector-curvature="0"
     style="display:inline;opacity:0.15;vector-effect:none;fill:#ffffff;fill-opacity:1;stroke:none;stroke-width:1;stroke-linecap:round;stroke-linejoin:round;stroke-miterlimit:4;stroke-dasharray:none;stroke-dashoffset:0;stroke-opacity:1;enable-background:new"
     d="M 15.13636,4.9999994 7.5,20.27273 v 4.77273 C 7.5,25.57427 7.92573,26 8.45455,26 H 12 L 22.5,4.9999994 Z"
     id="rect12587-5-1-2-6"
     sodipodi:nodetypes="ccssccc" />
  <rect
     style="display:inline;opacity:1;vector-effect:none;fill:url(#linearGradient13869);fill-opacity:1;stroke:none;stroke-width:1;stroke-linecap:round;stroke-linejoin:round;stroke-miterlimit:4;stroke-dasharray:none;stroke-dashoffset:0;stroke-opacity:1;enable-background:new"
     id="rect10487-0"
     width="18"
     height="21"
     x="7.5"
     y="4.999999"
     rx="1"
     ry="1" />
  <rect
     style="display:inline;opacity:0.3;vector-effect:none;fill:#000000;fill-opacity:1;stroke:none;stroke-width:1;stroke-linecap:round;stroke-linejoin:round;stroke-miterlimit:4;stroke-dasharray:none;stroke-dashoffset:0;stroke-opacity:1;enable-background:new"
     id="rect12618-8"
     width="4"
     height="1"
     x="14.5"
     y="1.9999994"
     rx="0.5"
     ry="0.5" />
  <path
     inkscape:connector-curvature="0"
     style="display:inline;opacity:0.2;vector-effect:none;fill:#ffffff;fill-opacity:1;stroke:none;stroke-width:1;stroke-linecap:round;stroke-linejoin:round;stroke-miterlimit:4;stroke-dasharray:none;stroke-dashoffset:0;stroke-opacity:1;enable-background:new"
     d="M 15.13636,4.9999994 7.5,20.27273 v 4.77273 C 7.5,25.57427 7.92573,26 8.45455,26 H 12 L 22.5,4.9999994 Z"
     id="rect12587-5-1-2"
     sodipodi:nodetypes="ccssccc" />
  <path
     inkscape:connector-curvature="0"
     style="display:inline;opacity:0.4;vector-effect:none;fill:#f9f9f9;fill-opacity:1;stroke:none;stroke-width:1;stroke-linecap:round;stroke-linejoin:round;stroke-miterlimit:4;stroke-dasharray:none;stroke-dashoffset:0;stroke-opacity:1;enable-background:new"
     d="m 8.5,4.9999994 c -0.554,0 -1,0.4460001 -1,1.0000001 V 20.27344 L 15.13672,4.9999994 Z"
     id="path2535" />
</svg>
